browser/images/lc_configuredialog.svg

<svg viewBox="0 0 24 24" xmlns="http://www.w3.org/2000/svg"><path d="m3 4v16h18v-16z" fill="#fff"/><path d="m7 14.5a.5.5 0 0 1 .2-.4l3-3a.5.5 0 1 1 .7.7l-2.1 2.1h5.8a.5.5 0 1 1 0 1h-5.8l2.1 2.1a.5.5 0 1 1 -.7.7l-3-2.8a.5.5 0 0 1 -.2-.4z" fill="#1e8bcd"/><path d="m3 3c-.554 0-1 .446-1 1v16c0 .554.446 1 1 1h18c.554 0 1-.446 1-1v-16c0-.554-.446-1-1-1zm0 1h18v16h-18z" fill="#3a3a38"/><path d="m17 3c-.554 0-1 .446-1 1v16c0 .554.446 1 1 1h4c.554 0 1-.446 1-1v-16c0-.554-.446-1-1-1zm0 1h4v16h-4z" fill="#0063b1"/><path d="m17 4v16h4v-16z" fill="#83beec"/></svg>

<svg viewBox="0 0 24 24" xmlns="http://www.w3.org/2000/svg">
  <path
     style="fill:#ffffff"
     d="M 3 4 L 3 20 L 21 20 L 21 4 L 3 4 z " />
  <path
     d="m 7,14.5 a 0.5,0.5 0 0 1 0.2,-0.4 l 3,-3 a 0.5,0.5 0 1 1 0.7,0.7 l -2.1,2.1 5.8,0 a 0.5,0.5 0 1 1 0,1 l -5.8,-0 2.1,2.1 a 0.5,0.5 0 1 1 -0.7,0.7 L 7.2,14.9 a 0.5,0.5 0 0 1 -0.2,-0.4 z"
     fill="#1e8bcd"
     />
  <path
     style="fill:#3a3a38"
     d="M 3 3 C 2.446 3 2 3.446 2 4 L 2 20 C 2 20.554 2.446 21 3 21 L 21 21 C 21.554 21 22 20.554 22 20 L 22 4 C 22 3.446 21.554 3 21 3 L 3 3 z M 3 4 L 21 4 L 21 20 L 3 20 L 3 4 z " />
  <path
     style="fill:#1e8bcd"
     d="M 17 3 C 16.446 3 16 3.446 16 4 L 16 20 C 16 20.554 16.446 21 17 21 L 21 21 C 21.554 21 22 20.554 22 20 L 22 4 C 22 3.446 21.554 3 21 3 L 17 3 z M 17 4 L 21 4 L 21 20 L 17 20 L 17 4 z " />
  <path
     style="fill:#83beec"
     d="M 17 4 L 17 20 L 21 20 L 21 4 L 17 4 z " />
</svg>
